X:1
T:The Sheffield Apprentice
M:4/4
L:1/4
K:F
 F| A A B c| A F2 F| G3/2 A/2 F F| F3 F| A c d e| f e d c| d- e f e|\
 d- c2 F| A c/2c/2 d e| f- e d c| d e f e| d- c2 A| B c d B| A F F F|\
 G3/2 A/2 F F| F3||
